build/svg/cmd/lc_toggletitle.svg

<?xml version="1.0" encoding="UTF-8" standalone="no"?>
<svg
   xmlns:dc="http://purl.org/dc/elements/1.1/"
   xmlns:cc="http://creativecommons.org/ns#"
   xmlns:rdf="http://www.w3.org/1999/02/22-rdf-syntax-ns#"
   xmlns:svg="http://www.w3.org/2000/svg"
   xmlns="http://www.w3.org/2000/svg"
   xmlns:sodipodi="http://sodipodi.sourceforge.net/DTD/sodipodi-0.dtd"
   xmlns:inkscape="http://www.inkscape.org/namespaces/inkscape"
   viewBox="0 0 24 24"
   version="1.1"
   id="svg6"
   sodipodi:docname="lc_toggletitle.svg"
   inkscape:export-filename="/home/jupiter007/Libreoffice yaru theme fullcolor/build/cmd/lc_toggletitle.png"
   inkscape:export-xdpi="96"
   inkscape:export-ydpi="96"
   inkscape:version="0.92.5 (2060ec1f9f, 2020-04-08)">
  <metadata
     id="metadata12">
    <rdf:RDF>
      <cc:Work
         rdf:about="">
        <dc:format>image/svg+xml</dc:format>
        <dc:type
           rdf:resource="http://purl.org/dc/dcmitype/StillImage" />
      </cc:Work>
    </rdf:RDF>
  </metadata>
  <defs
     id="defs10" />
  <sodipodi:namedview
     pagecolor="#ffffff"
     bordercolor="#666666"
     borderopacity="1"
     objecttolerance="10"
     gridtolerance="10"
     guidetolerance="10"
     inkscape:pageopacity="0"
     inkscape:pageshadow="2"
     inkscape:window-width="1920"
     inkscape:window-height="1011"
     id="namedview8"
     showgrid="true"
     inkscape:zoom="19.666667"
     inkscape:cx="3.297685"
     inkscape:cy="14.124708"
     inkscape:window-x="0"
     inkscape:window-y="32"
     inkscape:window-maximized="1"
     inkscape:current-layer="svg6">
    <inkscape:grid
       type="xygrid"
       id="grid14" />
  </sodipodi:namedview>
  <path
     sodipodi:nodetypes="cccscsccccccccscscccccc"
     inkscape:connector-curvature="0"
     id="path4237-1"
     d="M 6.9941157,2.9996399 C 5.7359156,3.0141399 4.8152245,2.9690359 4.0624747,3.3844055 3.6861049,3.5920655 3.3892439,3.9437924 3.2245838,4.3824524 3.0599139,4.8211224 2.999975,5.3420399 2.999975,5.9996399 v 1.4882808 9.5124423 c 0,0.65761 0.0599,1.178578 0.2246089,1.617187 0.1646799,0.438612 0.461531,0.788524 0.8378909,0.996093 0.7527199,0.41513 1.6735409,0.371649 2.931641,0.386719 h 0.002 10.0058592 0.0039 c 1.25819,-0.0145 2.178891,0.0306 2.931641,-0.384766 0.37637,-0.20766 0.673221,-0.559386 0.837891,-0.998046 0.164539,-0.438671 0.224618,-0.959578 0.224618,-1.617187 V 7.4664366 5.9996399 c 0,-0.6576 -0.0599,-1.1785775 -0.224609,-1.6171875 -0.16468,-0.4386 -0.461531,-0.7885338 -0.837891,-0.9960937 -0.75277,-0.41513 -1.673601,-0.3716388 -2.931691,-0.3867188 h -0.002 -10.0058593 z"
     style="font-style:normal;font-variant:normal;font-weight:normal;font-stretch:normal;font-size:15px;line-height:125%;font-family:Ubuntu;-inkscape-font-specification:Ubuntu;text-align:center;letter-spacing:0px;word-spacing:0px;writing-mode:lr-tb;text-anchor:middle;display:inline;opacity:0.6;fill:#000000;fill-opacity:1;stroke:none;stroke-width:0.99980211" />
  <path
     inkscape:connector-curvature="0"
     id="path1993"
     d="m 9.983344,4.0268247 c -1.55658,0.010796 -3.1099902,-0.011752 -4.6599412,0.038775 -0.4612292,0.042668 -1.0161881,0.2064194 -1.1553399,0.7099668 -0.218994,0.6353464 -0.108414,1.3337872 -0.145796,1.9819241 -0.0078,2.2970856 -0.02297,8.5965694 0.02152,10.8859214 0.0391,0.46193 0.2025509,1.012664 0.6987557,1.163665 0.632456,0.225082 1.2841439,0.12274 1.935974,0.154299 1.4242363,0.0068 4.8505634,0.01102 6.2764204,0.01131 1.704531,3.5e-4 3.408388,-0.005 5.10719,-0.01851 0.511911,-0.01201 1.183699,0.01993 1.584745,-0.40519 0.421097,-0.539783 0.287073,-1.268022 0.322745,-1.903788 0.01187,-2.444324 0.02769,-8.9112362 -0.0219,-11.3569354 C 19.898441,4.8862221 19.777725,4.4253103 19.372578,4.2437872 18.704409,3.9496898 17.946373,4.0757683 17.246657,4.0382145 15.49225,4.0264119 11.737783,4.0257301 9.983344,4.0268247 Z"
     style="opacity:1;vector-effect:none;fill:#ffffff;fill-opacity:1;stroke:none;stroke-width:1;stroke-linecap:round;stroke-linejoin:bevel;stroke-miterlimit:4;stroke-dasharray:none;stroke-dashoffset:0;stroke-opacity:1"
     sodipodi:nodetypes="cccccccsccccccc" />
  <path
     style="opacity:1;fill:#232629;fill-opacity:0.94117647;stroke:none;stroke-width:2;stroke-linecap:round;stroke-linejoin:round;stroke-miterlimit:4;stroke-dasharray:none;stroke-opacity:1"
     d="m 6.9999997,5.9999999 v 1 h -1 v 1 h 1 v 7.0000011 h -1 V 16 h 1 v 1 H 7.9999999 V 16 H 16 v 1 h 1 v -1 h 1 V 15 H 17 V 8.0000001 h 1 V 7 H 17 V 6 H 16 V 7 H 7.9999999 V 6 Z m 1.0000002,2 H 16 v 7.0000011 h -2 v -4 h -2 v 4 H 11 V 9.0000002 H 9.0000009 v 6.0000008 h -1.000001 z"
     id="rect830"
     inkscape:connector-curvature="0"
     sodipodi:nodetypes="cccccccccccccccccccccccccccccccccccccccccc" />
  <rect
     y="-17"
     x="3"
     height="10"
     width="2"
     id="rect848"
     style="opacity:1;fill:#e95420;fill-opacity:1;fill-rule:evenodd;stroke:none;stroke-width:2;stroke-linecap:butt;stroke-linejoin:round;stroke-miterlimit:4;stroke-dasharray:none;stroke-opacity:1"
     transform="rotate(90)" />
</svg>

<svg xmlns="http://www.w3.org/2000/svg" viewBox="0 0 24 24"><path d="M6.994 3c-1.258.014-2.179-.031-2.932.384a1.88 1.88 0 00-.837.998C3.06 4.822 3 5.342 3 6v11c0 .658.06 1.179.225 1.618.164.438.461.788.837.996.753.415 1.674.371 2.932.386h10.012c1.258-.014 2.179.031 2.932-.384a1.88 1.88 0 00.837-.998c.165-.44.225-.96.225-1.618V6c0-.658-.06-1.179-.225-1.618a1.875 1.875 0 00-.837-.996c-.753-.415-1.674-.371-2.932-.386H6.998z" style="line-height:125%;-inkscape-font-specification:Ubuntu;text-align:center" font-weight="400" font-size="15" font-family="Ubuntu" letter-spacing="0" word-spacing="0" text-anchor="middle" opacity=".6"/><path d="M9.983 4.027c-1.556.01-3.11-.012-4.66.039-.46.042-1.016.206-1.155.71-.219.635-.108 1.333-.146 1.981-.008 2.298-.023 8.597.022 10.886.039.462.202 1.013.699 1.164.632.225 1.284.123 1.936.154 1.424.007 4.85.011 6.276.012 1.704 0 3.408-.005 5.107-.019.512-.012 1.184.02 1.585-.405.421-.54.287-1.268.323-1.904.011-2.444.027-8.911-.022-11.357-.05-.402-.17-.863-.575-1.044-.669-.294-1.427-.168-2.126-.206-1.755-.012-5.51-.012-7.264-.011z" fill="#fff"/><path d="M7 6v1H6v1h1v7H6v1h1v1h1v-1h8v1h1v-1h1v-1h-1V8h1V7h-1V6h-1v1H8V6zm1 2h8v7h-2v-4h-2v4h-1V9H9v6H8z" fill="#232629" fill-opacity=".941"/><path fill="#e95420" fill-rule="evenodd" d="M17 3v2H7V3z"/></svg>
